X:1018
T:Baille de Panderu (CT 263)
R:Panderu
C:Tradicional
S:Música Tradicional Asturiana, (C) Tello & Tito. Asturies, 2001.
S:http://pagina.de/MusTradAst <telloytito@asturies.org>
N:Canción de baile de pandero, dictada por Iluminada y Aurelia Martínez Viesca, de treinta y trenta y cinco años, respectivamente, de Llanuces, ayuntamiento de Quirós.
O:Llanuces (Quirós)
A:Asturies
Z:Cancioneru de Torner 263
M:6/8
L:1/8
Q:3/8=88
W:Anque toi descolorida
W:nun presumas cosa mala;
W:son penas del corazón
W:que me salen a la cara.
K:Gm
|GGB AG^F|G(A3/2G/2 ^F3)|GGB AG^F|GA2- A2z|
AAd cBA|c2c BAG|B2c B(A3/2B/4A/4|G3- G2) z||


